icons/jupyter/jupyter-plain.svg

<?xml version="1.0" encoding="UTF-8"?>
<svg xmlns="http://www.w3.org/2000/svg" xmlns:xlink="http://www.w3.org/1999/xlink" width="128px" height="128px" viewBox="0 0 128 128" version="1.1">
<g id="surface1">
<path style=" stroke:none;fill-rule:evenodd;fill:rgb(0%,0%,0%);fill-opacity:1;" d="M 109.765625 7.28125 C 109.828125 8.785156 109.449219 10.277344 108.675781 11.5625 C 107.902344 12.847656 106.765625 13.875 105.414062 14.511719 C 104.058594 15.148438 102.542969 15.363281 101.074219 15.132812 C 99.59375 14.902344 98.21875 14.234375 97.121094 13.21875 C 96.019531 12.199219 95.246094 10.875 94.890625 9.414062 C 94.539062 7.953125 94.625 6.417969 95.136719 5 C 95.644531 3.589844 96.5625 2.359375 97.765625 1.46875 C 98.96875 0.582031 100.410156 0.0703125 101.902344 0.0078125 C 103.898438 -0.078125 105.851562 0.640625 107.324219 2.003906 C 108.800781 3.371094 109.675781 5.265625 109.761719 7.277344 Z M 109.765625 7.28125 "/>
<path style=" stroke:none;fill-rule:evenodd;fill:rgb(0%,0%,0%);fill-opacity:1;" d="M 65.757812 96.789062 C 45.660156 96.789062 28.109375 89.425781 18.992188 78.523438 C 22.386719 88.304688 28.710938 96.777344 37.09375 102.777344 C 45.476562 108.777344 55.496094 111.992188 65.769531 111.992188 C 76.042969 111.992188 86.0625 108.773438 94.445312 102.777344 C 102.824219 96.78125 109.148438 88.304688 112.539062 78.523438 C 103.40625 89.425781 85.855469 96.789062 65.757812 96.789062 Z M 65.757812 96.789062 "/>
<path style=" stroke:none;fill-rule:evenodd;fill:rgb(0%,0%,0%);fill-opacity:1;" d="M 65.75 25.882812 C 85.847656 25.882812 103.402344 33.25 112.515625 44.148438 C 109.121094 34.367188 102.796875 25.894531 94.414062 19.894531 C 86.03125 13.898438 76.015625 10.675781 65.742188 10.675781 C 55.472656 10.675781 45.449219 13.898438 37.070312 19.894531 C 28.6875 25.890625 22.359375 34.367188 18.96875 44.148438 C 28.101562 33.269531 45.652344 25.882812 65.75 25.882812 Z M 65.75 25.882812 "/>
<path style=" stroke:none;fill-rule:evenodd;fill:rgb(0%,0%,0%);fill-opacity:1;" d="M 38.164062 117.984375 C 38.246094 119.878906 37.769531 121.757812 36.792969 123.382812 C 35.8125 125.007812 34.386719 126.304688 32.675781 127.101562 C 30.964844 127.902344 29.089844 128.175781 27.203125 127.886719 C 25.316406 127.59375 23.609375 126.753906 22.222656 125.46875 C 20.839844 124.183594 19.863281 122.515625 19.414062 120.671875 C 18.972656 118.824219 19.082031 116.890625 19.726562 115.105469 C 20.375 113.324219 21.53125 111.777344 23.054688 110.652344 C 24.578125 109.527344 26.390625 108.894531 28.269531 108.820312 C 30.789062 108.714844 33.238281 109.621094 35.097656 111.339844 C 36.953125 113.066406 38.058594 115.453125 38.164062 117.988281 Z M 38.164062 117.984375 "/>
<path style=" stroke:none;fill-rule:evenodd;fill:rgb(0%,0%,0%);fill-opacity:1;" d="M 21.285156 23.417969 C 20.183594 23.46875 19.085938 23.179688 18.144531 22.601562 C 17.199219 22.023438 16.445312 21.171875 15.980469 20.167969 C 15.511719 19.160156 15.359375 18.03125 15.527344 16.929688 C 15.695312 15.828125 16.183594 14.796875 16.933594 13.980469 C 17.679688 13.160156 18.652344 12.582031 19.722656 12.316406 C 20.792969 12.046875 21.925781 12.113281 22.960938 12.5 C 24 12.882812 24.898438 13.566406 25.546875 14.46875 C 27.117188 16.640625 26.953125 19.617188 25.148438 21.597656 C 24.148438 22.699219 22.757812 23.351562 21.28125 23.417969 Z M 21.285156 23.417969 "/>
</g>
</svg>

<svg xmlns="http://www.w3.org/2000/svg" viewBox="0 0 128 128"><g fill-rule="evenodd"><path d="M109.766 7.281a7.691 7.691 0 01-1.09 4.282 7.583 7.583 0 01-3.262 2.949 7.49 7.49 0 01-4.34.62 7.525 7.525 0 01-3.953-1.913A7.642 7.642 0 0195.137 5a7.606 7.606 0 012.629-3.531 7.509 7.509 0 014.136-1.461 7.51 7.51 0 015.422 1.996 7.627 7.627 0 012.438 5.273zm0 0M65.758 96.79c-20.098 0-37.649-7.364-46.766-18.267a49.95 49.95 0 0018.102 24.254 49.251 49.251 0 0028.676 9.215 49.279 49.279 0 0028.675-9.215 49.917 49.917 0 0018.094-24.254C103.406 89.426 85.855 96.79 65.758 96.79zm0 0M65.75 25.883c20.098 0 37.652 7.367 46.766 18.265a49.95 49.95 0 00-18.102-24.253 49.27 49.27 0 00-28.672-9.22 49.27 49.27 0 00-28.672 9.22A49.909 49.909 0 0018.97 44.148C28.102 33.27 45.652 25.883 65.75 25.883zm0 0M38.164 117.984a9.671 9.671 0 01-1.371 5.399 9.5 9.5 0 01-9.59 4.504 9.405 9.405 0 01-4.98-2.418 9.671 9.671 0 01-2.809-4.797 9.73 9.73 0 01.313-5.567 9.624 9.624 0 013.328-4.453 9.466 9.466 0 0112.043.688 9.63 9.63 0 013.066 6.648zm0 0M21.285 23.418a5.53 5.53 0 01-3.14-.816 5.627 5.627 0 01-2.618-5.672 5.612 5.612 0 011.407-2.95 5.593 5.593 0 012.789-1.664 5.46 5.46 0 013.238.184 5.539 5.539 0 012.586 1.969 5.66 5.66 0 01-.399 7.129 5.557 5.557 0 01-3.867 1.82zm0 0"/></g></svg>
